!!!COM:	Busnoys, Antoine
!!!CDT:	~1430///-1492/11/06
!!!OTL:	Au gr&eacute; de mes ieulx
!!!AGN:	Song; Chanson
!!!SCT:	Bus3005
!!!SCA:	Bus3005
!!!voices:	3
**kern	**text	**text	**kern	**text	**text	**kern	**text	**text
*staff3	*staff3	*staff3	*staff2	*staff2	*staff2	*staff1	*staff1	*staff1
*Ivox	*	*	*Ivox	*	*	*Ivox	*	*
*I"Contra	*	*	*I"Tenor	*	*	*I"Discantus	*	*
*I'C	*	*	*I'T	*	*	*I'D	*	*
*>[A,B]	*>[A,B]	*>[A,B]	*>[A,B]	*>[A,B]	*>[A,B]	*>[A,B]	*>[A,B]	*>[A,B]
*>A	*>A	*>A	*>A	*>A	*>A	*>A	*>A	*>A
*clefF4	*	*	*clefGv2	*	*	*clefG2	*	*
*k[b-]	*	*	*k[b-]	*	*	*k[]	*	*
*M3/1	*	*	*M3/1	*	*	*M3/1	*	*
*met(O)	*	*	*met(O)	*	*	*met(O)	*	*
*MM240	*	*	*MM240	*	*	*MM240	*	*
=1-	=1-	=1-	=1-	=1-	=1-	=1-	=1-	=1-
!!LO:TX:Z=12:t=Virelai
1C	Au	De	0c	Au	De	1.cc	Au	De
1F	.	.	.	.	.	.	.	.
.	.	.	.	.	.	4b-i	.	.
.	.	.	.	.	.	4cc	.	.
2.F	gr&eacute;	moi	[1f	gr&eacute;	moi	2dd	gr&eacute;	moi
.	.	.	.	.	.	[2cc	.	.
4G	.	.	.	.	.	.	.	.
=2	=2	=2	=2	=2	=2	=2	=2	=2
2A	.	.	2f]	.	.	2cc]	.	.
2B-	.	.	2d	.	.	4b-i	.	.
.	.	.	.	.	.	4a	.	.
2c	.	.	0e	.	.	2g	.	.
2A	.	.	.	.	.	2f	.	.
1G	.	.	.	.	.	1g	.	.
=3	=3	=3	=3	=3	=3	=3	=3	=3
2F	.	.	0f	.	.	1a	.	.
1D	.	.	.	.	.	.	.	.
.	.	.	.	.	.	1r	.	.
2.d	de	en	.	.	.	.	.	.
.	.	.	1f	de	en	1a	de	en
4c	.	.	.	.	.	.	.	.
4B-	.	.	.	.	.	.	.	.
4A	.	.	.	.	.	.	.	.
=4	=4	=4	=4	=4	=4	=4	=4	=4
2.G	mes	tous	1g	mes	tous	1b-	mes	tous
4F	.	.	.	.	.	.	.	.
2D	.	.	2f	.	.	2a	.	.
2F	.	.	1f	.	.	2f	.	.
1C	ieulx	lieux	.	.	.	1g	ieulx	lieux
.	.	.	2e	.	.	.	.	.
=5	=5	=5	=5	=5	=5	=5	=5	=5
2r	.	.	1f	.	.	1f	.	.
1F	je	vous	.	.	.	.	.	.
.	.	.	1f	ieulx	lieux	1r	.	.
2G	.	.	.	.	.	.	.	.
2A	.	.	1r	.	.	2f	je	vous
2B-	.	.	.	.	.	2g	.	.
=6	=6	=6	=6	=6	=6	=6	=6	=6
1c	.	.	1F	je	vous	0a	vous	se-
1c	vous	se-	2E	.	.	.	.	.
.	.	.	2.F	vous	se-	.	.	.
1c	ay	-rez	.	.	.	1a	ay	-rez
.	.	.	4G	.	.	.	.	.
.	.	.	[2A	ay	-rez	.	.	.
=7	=7	=7	=7	=7	=7	=7	=7	=7
2r	.	.	2A]	.	.	1a	choi-	ser-
2F	choi-	ser-	2B-	choi-	ser-	.	.	.
2E	-si-	-vi-	2.c	-si-	-vi-	1.g	-si-	-vi-
1C	.	.	.	.	.	.	.	.
.	.	.	4d	.	.	.	.	.
.	.	.	1e	-e,	-e,	.	.	.
2E	.	.	.	.	.	2f	.	.
=8	=8	=8	=8	=8	=8	=8	=8	=8
1D	.	.	2r	.	.	1a	-e,	-e,
.	.	.	1f	La	Car	.	.	.
1D	-e,	-e,	.	.	.	1r	.	.
.	.	.	2d	.	.	.	.	.
1A	.	.	2c	.	.	[1cc	La	Car
.	.	.	[2A	.	.	.	.	.
=9	=9	=9	=9	=9	=9	=9	=9	=9
1r	.	.	2A]	.	.	1cc]	.	.
.	.	.	1F	.	.	.	.	.
1A	La	Car	.	.	.	1cc	plus	tou-
.	.	.	1f	plus	tou-	.	.	.
1F	plus	tou-	.	.	.	1cc	a-	-te
.	.	.	2e	a-	-te	.	.	.
=10	=10	=10	=10	=10	=10	=10	=10	=10
1G	a-	-te	1d	.	.	1b-	.	.
2A	-com-	ma	2c	-com-	ma	2a	-com-	ma
2c	-pli-	vi-	2A	-pli-	vi-	1a	-pli-	vi-
1d	.	.	1B-	.	.	.	.	.
.	.	.	.	.	.	2g	.	.
=11	=11	=11	=11	=11	=11	=11	=11	=11
1.c	-e	-e	0F	-e	-e	1a	-e	-e
.	.	.	.	.	.	1r	.	.
2B-	.	.	.	.	.	.	.	.
1A	Qui	je	1c	Qui	je	1a	Qui	je
=12	=12	=12	=12	=12	=12	=12	=12	=12
0G	soit	ne	1.d	soit	ne	0b-i	soit	ne
.	.	.	2e	.	.	.	.	.
2D	soubz	pour-	2f	soubz	pour-	[1a	soubz	pour-
2E	.	.	4e	.	.	.	.	.
.	.	.	4d	.	.	.	.	.
=13	=13	=13	=13	=13	=13	=13	=13	=13
2.F	.	.	1.c	.	.	2a]	.	.
.	.	.	.	.	.	4g	.	.
4E	.	.	.	.	.	4f	.	.
1C	.	.	.	.	.	2e	.	.
.	.	.	2A	.	.	2c	.	.
1G	.	.	1Bni	.	-roi	1d	.	.
=14	=14	=14	=14	=14	=14	=14	=14	=14
0.C	.	-roi	2r	.	.	0e	.	-roi
.	.	.	2c	les	mieulx.	.	.	.
.	.	.	2G	cieulx,	.	.	.	.
.	.	.	2.c	.	.	.	.	.
.	.	.	.	.	.	1e	les	mieulx.
.	.	.	4B-	.	.	.	.	.
.	.	.	4A	.	.	.	.	.
.	.	.	4G	.	.	.	.	.
=15	=15	=15	=15	=15	=15	=15	=15	=15
2r	.	.	2A	.	.	2f	cieulx,	.
1BB-	les	mieulx.	2.B-	.	.	2.g	.	.
.	.	.	4A	.	.	4f	.	.
1C	.	.	4G	.	.	4e	.	.
.	.	.	4F	.	.	4d	.	.
.	.	.	2G	.	.	2e	.	.
[2F	cieulx,	.	[2A	.	.	[2f	.	.
=16	=16	=16	=16	=16	=16	=16	=16	=16
4F]	.	.	4A]	.	.	4f]	.	.
4E	.	.	4G	.	.	4g	.	.
2F	.	.	2.F	.	.	2.a	.	.
1D	.	.	.	.	.	.	.	.
.	.	.	4E	.	.	4g	.	.
.	.	.	2F	.	.	2.f	.	.
1C	.	.	1G	.	.	.	.	.
.	.	.	.	.	.	4e	.	.
.	.	.	.	.	.	4e	.	.
.	.	.	.	.	.	4d	.	.
=17	=17	=17	=17	=17	=17	=17	=17	=17
*^	*	*	*	*	*	*	*	*
0.Fl	0.cl	&	&	0.Fl	.	.	0.fl	.	.
*v	*v	*	*	*	*	*	*	*	*
!!LO:LB:i:g=z
=18||	=18||!|:	=18||!|:	=18||!|:	=18||!|:	=18||!|:	=18||!|:	=18||!|:	=18||!|:
*>B	*>B	*>B	*>B	*>B	*>B	*>B	*>B	*>B
*clefF4	*	*	*clefGv2	*	*	*clefG2	*	*
*k[b-]	*	*	*k[b-]	*	*	*k[]	*	*
*M2/1	*	*	*M2/1	*	*	*M2/1	*	*
*met(C2)	*	*	*met(C2)	*	*	*met(C2)	*	*
*MM320	*	*	*MM320	*	*	*MM320	*	*
!!section: Car le bien parfait
!!!OMD: Car le bien parfait
0r	.	.	0c	Car	Sur	0r	.	.
=19	=19	=19	=19.	=19	=19	=19.	=19	=19
0r	.	.	1d	le	tou-	0r	.	.
.	.	.	[1f	bien	-tes	.	.	.
=20	=20	=20	=20	=20	=20	=20	=20	=20
0r	.	.	1f]	.	.	0cc	Car	Sur
.	.	.	1e	par-	vous	.	.	.
=21	=21	=21	=21.	=21	=21	=21.	=21	=21
0r	.	.	0f	-fait	fait	1dd	le	tou-
.	.	.	.	.	.	[1ff	bien	-tes
=22	=22	=22	=22	=22	=22	=22	=22	=22
0r	.	.	0g	.	.	1ff]	.	.
.	.	.	.	.	.	1ee	par-	vous
=23	=23	=23	=23.	=23	=23	=23.	=23	=23
0r	.	.	[0f	.	.	1.ff	-fait	fait
.	.	.	.	.	.	2ee	.	.
=24	=24	=24	=24	=24	=24	=24	=24	=24
0r	.	.	1f]	.	.	2dd	.	.
.	.	.	.	.	.	2cc	.	.
.	.	.	1e	.	.	[1cc	.	.
=25	=25	=25	=25.	=25	=25	=25.	=25	=25
0r	.	.	0d	.	.	1cc]	.	.
.	.	.	.	.	.	1b	.	.
=26	=26	=26	=26	=26	=26	=26	=26	=26
0r	.	.	[0c	.	.	0cc	.	.
=27	=27	=27	=27.	=27	=27	=27.	=27	=27
0r	.	.	0c]	.	.	1r	.	.
.	.	.	.	.	.	1a	qu'en	don-
=28	=28	=28	=28	=28	=28	=28	=28	=28
0r	.	.	1r	.	.	0a	vous	-ner
.	.	.	1c	qu'en	don-	.	.	.
=29	=29	=29	=29.	=29	=29	=29.	=29	=29
0r	.	.	1d	vous	-ner	0b-i	est	los
.	.	.	1e	.	.	.	.	.
=30	=30	=30	=30	=30	=30	=30	=30	=30
0r	.	.	0f	est	los	0a	com-	et
=31	=31	=31	=31.	=31	=31	=31.	=31	=31
0r	.	.	1e	com-	et	1g	-pris,	pris;
.	.	.	1f	-pris,	pris;	[1f	.	.
=32	=32	=32	=32	=32	=32	=32	=32	=32
0r	.	.	0g	.	.	1f]	.	.
.	.	.	.	.	.	1e	.	.
=33	=33	=33	=33.	=33	=33	=33.	=33	=33
0r	.	.	1f	.	.	0f	.	.
.	.	.	1r	.	.	.	.	.
=34	=34	=34	=34	=34	=34	=34	=34	=34
*MM480	*	*	*MM480	*	*	*MM480	*	*
!	!	!	!	!	!	!LO:TX:Z=34:t=Pervasive coloration from here forward	!	!
!	!	!	!	!	!	!LO:TX:Z=12:t=(i.e., 3 semibreves in the time of 2).	!	!
0r	.	.	0a	.	.	0r	.	.
=35	=35	=35	=35.	=35	=35	=35.	=35	=35
0r	.	.	1g	.	.	0r	.	.
.	.	.	1e	.	.	.	.	.
=36	=36	=36	=36	=36	=36	=36	=36	=36
0r	.	.	0f	.	.	0a	.	.
=37	=37	=37	=37.	=37	=37	=37.	=37	=37
0r	.	.	0e	.	.	1g	.	.
.	.	.	.	.	.	1e	.	.
=38	=38	=38	=38	=38	=38	=38	=38	=38
0r	.	.	1d	.	.	0f	.	.
.	.	.	[1d	.	.	.	.	.
=39	=39	=39	=39.	=39	=39	=39.	=39	=39
0r	.	.	1d]	.	.	0e	.	.
.	.	.	1c	.	.	.	.	.
=40	=40	=40	=40	=40	=40	=40	=40	=40
0r	.	.	1d	.	.	1d	.	.
.	.	.	1f	.	.	[1d	.	.
=41	=41	=41	=41.	=41	=41	=41.	=41	=41
0r	.	.	0e	.	.	1d]	.	.
.	.	.	.	.	.	1c	.	.
=42	=42	=42	=42	=42	=42	=42	=42	=42
0r	.	.	1f	.	.	1d	.	.
.	.	.	[1a	.	.	1f	.	.
=43	=43	=43	=43.	=43	=43	=43.	=43	=43
0r	.	.	1a]	.	.	0e	.	.
.	.	.	1g	.	.	.	.	.
=44	=44	=44	=44	=44	=44	=44	=44	=44
0r	.	.	1f	.	.	1f	.	.
.	.	.	2e	.	.	[1a	.	.
.	.	.	2d	.	.	.	.	.
=45	=45	=45	=45.	=45	=45	=45.	=45	=45
0r	.	.	0c	.	.	1a]	.	.
.	.	.	.	.	.	1g	.	.
=46	=46	=46	=46	=46	=46	=46	=46	=46
0r	.	.	1d	.	.	1f	.	.
.	.	.	1f	.	.	2e	.	.
.	.	.	.	.	.	2d	.	.
=47	=47	=47	=47.	=47	=47	=47.	=47	=47
0r	.	.	1g	.	.	0c	.	.
.	.	.	[1a	.	.	.	.	.
=48	=48	=48	=48	=48	=48	=48	=48	=48
0r	.	.	1a]	.	.	1d	.	.
.	.	.	1f	.	.	[1f	.	.
=49	=49	=49	=49.	=49	=49	=49.	=49	=49
0r	.	.	0g	.	.	2f]	.	.
.	.	.	.	.	.	2e	.	.
.	.	.	.	.	.	2e	.	.
.	.	.	.	.	.	2d	.	.
=50	=50	=50	=50	=50	=50	=50	=50	=50
0r	.	.	0fl	.	.	0fl	.	.
==:|!	==:|!	==:|!	==:|!	==:|!	==:|!	==:|!	==:|!	==:|!
*-	*-	*-	*-	*-	*-	*-	*-	*-
!!!RDF**kern: l=long note in original notation
!!!RDF**kern: i=editorial accidental
!!!RDF**kern: V=start of tuplet marker
!!!RDF**kern: Z=end of tuplet marker
!!!ENC:	Chris Gage 04-02-2015
!!!END:	2015/11/05/
!!!EED:	Jesse Rodin
!!!EEV:	2015/11/05/
!!!ONB:	Translated from MusicXML and edited on 2015/11/05/ by Craig Sapp
!!muse2ps: C^@{COM}^i2I150v100,100,120Q16z18c46l2600
